X:1
T:Hanterdro tune from the Morvan
Q:120
M:3/2
R:hanterdro
S:Andy Turner <magpielane:dsl.pipex.com> tradtunes 2007-8-22
L:1/4
K:G
|: DGFED2 | GF/G/AcBG | DGFED2 | GF/G/AFGz :| 
|: BdcBd2 | cA/B/cABG | BdcBd2 | cA/B/cAGz :|
